shared/images/iconfont/kb-iconfont-proof-pending-16.svg

<?xml version="1.0" encoding="UTF-8"?>
<svg width="16px" height="16px" viewBox="0 0 16 16" version="1.1" xmlns="http://www.w3.org/2000/svg" xmlns:xlink="http://www.w3.org/1999/xlink">
    <!-- Generator: sketchtool 49.3 (51167) - http://www.bohemiancoding.com/sketch -->
    <title>38C5A3C6-1AE5-40D2-9065-6D4299F7BB60</title>
    <desc>Created with sketchtool.</desc>
    <defs></defs>
    <g id="Colors,-icons" stroke="none" stroke-width="1" fill="none" fill-rule="evenodd">
        <g id="Icons-2" transform="translate(-307.000000, -367.000000)">
            <g id="kb-iconfont-proof-pending-16" transform="translate(307.000000, 367.000000)">
                <rect id="icon-area" fill="#D8D8D8" opacity="0" x="0" y="0" width="16" height="16"></rect>
                <path d="M15.2213533,5.52689333 L14.66976,8 L15.2213533,10.4731067 L13.3221,12.14974 L12.31364,14.4724933 L9.79256,14.7148867 L9.12011333,15.1111667 L7.61067333,16 L6.10123333,15.1111667 L5.42846667,14.7148867 L2.90738667,14.4724933 L1.89925333,12.1492533 L0,10.4731067 L0.551593333,8 L0,5.52689333 L1.89925333,3.85074667 L2.90771333,1.52750667 L5.42879333,1.28495333 L7.61067333,0 L9.79288667,1.28495333 L12.3139667,1.52750667 L13.3221,3.85074667 L15.2213533,5.52689333 Z M8.33333333,4 C7.96515113,4.00001841 7.66668507,4.29848446 7.66666667,4.66666667 L7.66666667,8 L5.66666667,8 C5.29847683,8 5,8.29847683 5,8.66666667 C5,9.0348565 5.29847683,9.33333333 5.66666667,9.33333333 L9,9.33333333 L9,4.66666667 C8.99997791,4.29848598 8.70151402,4.00002209 8.33333333,4 Z" id="Combined-Shape" fill="#000000" fill-rule="nonzero"></path>
            </g>
        </g>
    </g>
</svg>

<svg xmlns="http://www.w3.org/2000/svg" width="16" height="16" viewBox="0 0 16 16">
    <path fill="#000" fill-rule="nonzero" d="M15.221 5.527L14.67 8l.551 2.473-1.899 1.677-1.008 2.322-2.521.243-.673.396L7.61 16l-1.509-.889-.673-.396-2.52-.243-1.009-2.323L0 10.473.552 8 0 5.527 1.9 3.85l1.008-2.323 2.52-.243L7.612 0l2.182 1.285 2.521.243 1.008 2.323 1.9 1.676zM8.333 4a.667.667 0 0 0-.666.667V8h-2a.667.667 0 1 0 0 1.333H9V4.667A.667.667 0 0 0 8.333 4z"/>
</svg>
